assets/components_previews/dynamic-rendering/light/foreach.svg

<svg xmlns="http://www.w3.org/2000/svg" width="320" height="232" fill="none" viewBox="0 0 320 232"><path fill="#AA99EC" fill-rule="evenodd" d="M165.118 103.222a1 1 0 0 0 .104 1.411l1.84 1.585c.366.316.587.508.728.657-.141.149-.362.341-.728.657l-1.84 1.586a1 1 0 0 0 1.306 1.515l1.84-1.586.043-.038c.349-.3.684-.589.923-.859.262-.296.541-.713.541-1.275s-.279-.979-.541-1.275c-.239-.27-.574-.558-.923-.859l-.043-.038-1.84-1.585a1 1 0 0 0-1.41.104m-2.486 0a1 1 0 0 1-.104 1.411l-1.84 1.585c-.366.316-.587.508-.728.657.141.149.362.341.728.657l1.84 1.586a1 1 0 0 1-1.306 1.515l-1.84-1.586-.043-.038c-.349-.3-.684-.589-.923-.859-.262-.296-.541-.713-.541-1.275s.279-.979.541-1.275c.239-.27.574-.558.923-.859l.043-.038 1.84-1.585a1 1 0 0 1 1.41.104" clip-rule="evenodd"/><path fill="#AA99EC" d="M154.812 110.522c.982.103.545.103 2.086.103a.978.978 0 0 0 0-1.955c-1.609 0-1.015-.001-1.885-.092-.854-.089-1.337-.256-1.695-.509a3 3 0 0 1-.632-.596c-.255-.323-.425-.755-.517-1.542-.095-.81-.097-1.867-.097-3.391v-2.9c0-.267 0-.906.281-1.378.173-.29.394-.534.622-.658a2.6 2.6 0 0 1 1.233-.312l1.041.036c.38.008.823-.004 1.251-.119a2.42 2.42 0 0 0 1.709-1.709c.115-.428.127-.871.119-1.251l-.036-1.04c0-.469.124-.876.341-1.254.127-.22.348-.423.653-.6.462-.269 1.015-.271 1.353-.273l.993-.002c1.834 0 2.501.014 3.005.19.872.308 1.538.95 1.848 1.735.078.197.133.455.162.903.03.457.031 1.04.031 1.88v5.113a.974.974 0 1 0 1.947 0v-5.146c0-.8 0-1.447-.035-1.975-.036-.545-.111-1.03-.294-1.495-.529-1.34-1.638-2.373-3.014-2.858-.859-.303-2.331-.303-3.886-.302-2.84 0-4.526 0-5.909.487-2.22.782-3.994 2.444-4.837 4.58-.281.712-.406 1.477-.466 2.394-.059.9-.059 2.013-.059 3.432v2.583c0 1.448 0 2.621.11 3.558.114.974.357 1.812.927 2.531.295.372.644.701 1.034.977.745.527 1.606.75 2.616.855" opacity=".4"/><path fill="#AA99EC" d="M116.463 138v-8.8h1.952v1.776h.544l-.592.48q0-1.12.656-1.76.672-.656 1.824-.656 1.344 0 2.096.864t.752 2.416v.832h-2v-.736q0-.816-.416-1.232t-1.184-.416q-.784 0-1.216.48-.416.48-.416 1.36V138zm7.978 0 3.072-4.544-2.864-4.256h2.256l1.36 2.16q.128.192.224.432.112.24.176.384.064-.144.176-.384t.224-.432l1.36-2.16h2.272l-2.864 4.256 3.056 4.544h-2.272l-1.52-2.416a5 5 0 0 1-.24-.448 7 7 0 0 0-.192-.384l-.176.384q-.112.24-.24.448L126.713 138zm13.178.16q-.672 0-1.088-.4-.4-.416-.4-1.072 0-.672.4-1.072.416-.416 1.088-.416t1.072.416q.416.4.416 1.072 0 .656-.416 1.072-.4.4-1.072.4m7.353-.16v-5.792h-2.416V130.4h2.416v-1.552q0-1.152.768-1.84.769-.688 2.032-.688h2.576v1.76h-2.528q-.384 0-.624.224-.224.209-.224.576v1.52h3.376v1.808h-3.376V138zm10.554.144q-1.12 0-1.952-.432a3.07 3.07 0 0 1-1.28-1.216q-.447-.8-.448-1.872v-2.048q0-1.087.448-1.872a3.07 3.07 0 0 1 1.28-1.216q.833-.432 1.952-.432 1.137 0 1.952.432.833.432 1.28 1.216t.448 1.872v2.048q0 1.073-.448 1.872a3.06 3.06 0 0 1-1.28 1.216q-.815.432-1.952.432m0-1.744q.8 0 1.232-.432.448-.448.448-1.28v-2.176q0-.848-.448-1.28-.432-.432-1.232-.432-.783 0-1.232.432-.447.432-.448 1.28v2.176q0 .832.448 1.28.449.432 1.232.432m5.706 1.6v-8.8h1.952v1.776h.544l-.592.48q0-1.12.656-1.76.672-.656 1.824-.656 1.344 0 2.096.864t.752 2.416v.832h-2v-.736q0-.816-.416-1.232t-1.184-.416q-.784 0-1.216.48-.416.48-.416 1.36V138zm12.218.16q-1.12 0-1.952-.432a3.16 3.16 0 0 1-1.296-1.216q-.448-.8-.448-1.872v-2.08q0-1.072.448-1.856a3.14 3.14 0 0 1 1.296-1.232q.831-.432 1.952-.432 1.104 0 1.92.432.831.432 1.28 1.216.464.768.464 1.808v1.6h-5.44v.608q0 .896.464 1.36.463.448 1.312.448.624 0 1.056-.208.447-.224.528-.64h1.984q-.209 1.136-1.184 1.824-.977.672-2.384.672m1.744-5.2v-.48q0-.912-.448-1.408-.432-.496-1.296-.496t-1.328.512q-.448.496-.448 1.408v.304l3.664-.016zm6.218 5.2q-1.345 0-2.128-.752-.768-.768-.768-2 0-.864.4-1.488a2.6 2.6 0 0 1 1.136-.96q.752-.352 1.76-.352h2.144v-.624q0-.64-.4-.976-.384-.352-1.152-.352-.705 0-1.136.272a.94.94 0 0 0-.448.768h-1.92q.063-1.2.992-1.92.944-.736 2.528-.736 1.68 0 2.608.784.927.784.928 2.208V138h-1.952v-1.68h-.32l.352-.288q0 .656-.32 1.136a2.2 2.2 0 0 1-.912.736q-.593.256-1.392.256m.64-1.632q.879 0 1.392-.432t.512-1.152v-1.04h-2.048q-.657 0-1.04.368-.384.352-.384.944 0 .593.4.96.415.352 1.168.352m9.433 1.632q-1.135 0-1.984-.416a3.2 3.2 0 0 1-1.296-1.2q-.464-.784-.464-1.84v-2.208q0-1.072.464-1.84.465-.768 1.296-1.184.849-.432 1.984-.432 1.648 0 2.64.864.993.848 1.056 2.32h-1.968q-.048-.689-.512-1.056-.463-.384-1.216-.384-.816 0-1.28.448-.464.432-.464 1.248v2.224q0 .816.464 1.264t1.28.448q.753 0 1.216-.368.464-.384.512-1.072h1.968q-.063 1.472-1.056 2.336-.992.848-2.64.848m5.242-.16v-11.68h2v2.88l-.048 1.68h.544l-.592.464q.017-1.056.672-1.68.656-.624 1.744-.624 1.296 0 2.064.864.784.864.784 2.32V138h-2v-5.536q0-.816-.416-1.248-.415-.448-1.152-.448-.752 0-1.184.448-.416.448-.416 1.28V138z"/></svg>

<svg width="320" height="232" viewBox="0 0 320 232" fill="none" xmlns="http://www.w3.org/2000/svg">
<path fill-rule="evenodd" clip-rule="evenodd" d="M165.118 103.222C164.757 103.641 164.804 104.272 165.222 104.633L167.062 106.218C167.428 106.534 167.649 106.726 167.79 106.875C167.649 107.024 167.428 107.216 167.062 107.532L165.222 109.118C164.804 109.478 164.757 110.11 165.118 110.528C165.478 110.946 166.11 110.993 166.528 110.633L168.368 109.047C168.382 109.034 168.397 109.022 168.411 109.009C168.76 108.709 169.095 108.42 169.334 108.15C169.596 107.854 169.875 107.437 169.875 106.875C169.875 106.313 169.596 105.896 169.334 105.6C169.095 105.33 168.76 105.042 168.411 104.741C168.397 104.728 168.382 104.716 168.368 104.703L166.528 103.118C166.11 102.757 165.478 102.804 165.118 103.222Z" fill="#AA99EC"/>
<path fill-rule="evenodd" clip-rule="evenodd" d="M162.632 103.222C162.993 103.641 162.946 104.272 162.528 104.633L160.688 106.218C160.322 106.534 160.101 106.726 159.96 106.875C160.101 107.024 160.322 107.216 160.688 107.532L162.528 109.118C162.946 109.478 162.993 110.11 162.632 110.528C162.272 110.946 161.641 110.993 161.222 110.633L159.382 109.047C159.368 109.034 159.353 109.022 159.339 109.009C158.99 108.709 158.655 108.42 158.416 108.15C158.154 107.854 157.875 107.437 157.875 106.875C157.875 106.313 158.154 105.896 158.416 105.6C158.655 105.33 158.99 105.042 159.339 104.741C159.353 104.728 159.368 104.716 159.382 104.703L161.222 103.118C161.641 102.757 162.272 102.804 162.632 103.222Z" fill="#AA99EC"/>
<path opacity="0.4" d="M154.812 110.522C155.794 110.625 155.357 110.625 156.898 110.625C157.437 110.625 157.875 110.187 157.875 109.648C157.875 109.108 157.437 108.67 156.898 108.67C155.289 108.67 155.883 108.669 155.013 108.578C154.159 108.489 153.676 108.322 153.318 108.069C153.076 107.898 152.864 107.697 152.686 107.473C152.431 107.15 152.261 106.718 152.169 105.931C152.074 105.121 152.072 104.064 152.072 102.54L152.072 99.64C152.072 99.373 152.072 98.7344 152.353 98.2623C152.526 97.9713 152.747 97.7282 152.975 97.6044C153.341 97.4048 153.762 97.2915 154.208 97.2915L155.249 97.328C155.629 97.3359 156.072 97.3239 156.5 97.2091C157.334 96.9857 157.986 96.3343 158.209 95.5003C158.324 95.0722 158.336 94.6286 158.328 94.2485L158.292 93.2082C158.292 92.7405 158.416 92.3333 158.633 91.9549C158.76 91.7343 158.981 91.5324 159.286 91.3551C159.748 91.0862 160.301 91.0837 160.639 91.0822C160.977 91.0807 161.334 91.0795 161.632 91.0795C163.466 91.0795 164.133 91.0935 164.637 91.2708C165.509 91.5783 166.175 92.2199 166.485 93.0053C166.563 93.2019 166.618 93.4603 166.647 93.9083C166.677 94.365 166.678 94.9479 166.678 95.7882V100.901C166.678 101.439 167.114 101.875 167.651 101.875C168.189 101.875 168.625 101.439 168.625 100.901V95.755C168.625 94.9558 168.625 94.3083 168.59 93.7797C168.554 93.2351 168.479 92.7494 168.296 92.2852C167.767 90.9459 166.658 89.9117 165.282 89.4266C164.423 89.1241 162.951 89.1245 161.396 89.125C158.556 89.1246 156.87 89.1244 155.487 89.6115C153.267 90.3937 151.493 92.0564 150.65 94.1925C150.369 94.9044 150.244 95.6691 150.184 96.586C150.125 97.4867 150.125 98.5993 150.125 100.018V102.601C150.125 104.049 150.125 105.222 150.235 106.159C150.349 107.133 150.592 107.971 151.162 108.69C151.457 109.062 151.806 109.391 152.196 109.667C152.941 110.194 153.802 110.417 154.812 110.522Z" fill="#AA99EC"/>
<path d="M116.463 138V129.2H118.415V130.976H118.959L118.367 131.456C118.367 130.709 118.586 130.123 119.023 129.696C119.471 129.259 120.079 129.04 120.847 129.04C121.743 129.04 122.442 129.328 122.943 129.904C123.445 130.48 123.695 131.285 123.695 132.32V133.152H121.695V132.416C121.695 131.872 121.557 131.461 121.279 131.184C121.002 130.907 120.607 130.768 120.095 130.768C119.573 130.768 119.167 130.928 118.879 131.248C118.602 131.568 118.463 132.021 118.463 132.608V138H116.463ZM124.441 138L127.513 133.456L124.649 129.2H126.905L128.265 131.36C128.35 131.488 128.425 131.632 128.489 131.792C128.564 131.952 128.622 132.08 128.665 132.176C128.708 132.08 128.766 131.952 128.841 131.792C128.916 131.632 128.99 131.488 129.065 131.36L130.425 129.2H132.697L129.833 133.456L132.889 138H130.617L129.097 135.584C129.012 135.445 128.932 135.296 128.857 135.136C128.782 134.976 128.718 134.848 128.665 134.752C128.622 134.848 128.564 134.976 128.489 135.136C128.414 135.296 128.334 135.445 128.249 135.584L126.713 138H124.441ZM137.619 138.16C137.171 138.16 136.808 138.027 136.531 137.76C136.264 137.483 136.131 137.125 136.131 136.688C136.131 136.24 136.264 135.883 136.531 135.616C136.808 135.339 137.171 135.2 137.619 135.2C138.067 135.2 138.424 135.339 138.691 135.616C138.968 135.883 139.107 136.24 139.107 136.688C139.107 137.125 138.968 137.483 138.691 137.76C138.424 138.027 138.067 138.16 137.619 138.16ZM144.972 138V132.208H142.556V130.4H144.972V128.848C144.972 128.08 145.228 127.467 145.74 127.008C146.252 126.549 146.93 126.32 147.772 126.32H150.348V128.08H147.82C147.564 128.08 147.356 128.155 147.196 128.304C147.047 128.443 146.972 128.635 146.972 128.88V130.4H150.348V132.208H146.972V138H144.972ZM155.526 138.144C154.78 138.144 154.129 138 153.574 137.712C153.02 137.424 152.593 137.019 152.294 136.496C151.996 135.963 151.846 135.339 151.846 134.624V132.576C151.846 131.851 151.996 131.227 152.294 130.704C152.593 130.181 153.02 129.776 153.574 129.488C154.129 129.2 154.78 129.056 155.526 129.056C156.284 129.056 156.934 129.2 157.478 129.488C158.033 129.776 158.46 130.181 158.758 130.704C159.057 131.227 159.206 131.851 159.206 132.576V134.624C159.206 135.339 159.057 135.963 158.758 136.496C158.46 137.019 158.033 137.424 157.478 137.712C156.934 138 156.284 138.144 155.526 138.144ZM155.526 136.4C156.06 136.4 156.47 136.256 156.758 135.968C157.057 135.669 157.206 135.243 157.206 134.688V132.512C157.206 131.947 157.057 131.52 156.758 131.232C156.47 130.944 156.06 130.8 155.526 130.8C155.004 130.8 154.593 130.944 154.294 131.232C153.996 131.52 153.846 131.947 153.846 132.512V134.688C153.846 135.243 153.996 135.669 154.294 135.968C154.593 136.256 155.004 136.4 155.526 136.4ZM161.232 138V129.2H163.184V130.976H163.728L163.136 131.456C163.136 130.709 163.355 130.123 163.792 129.696C164.24 129.259 164.848 129.04 165.616 129.04C166.512 129.04 167.211 129.328 167.712 129.904C168.213 130.48 168.464 131.285 168.464 132.32V133.152H166.464V132.416C166.464 131.872 166.325 131.461 166.048 131.184C165.771 130.907 165.376 130.768 164.864 130.768C164.341 130.768 163.936 130.928 163.648 131.248C163.371 131.568 163.232 132.021 163.232 132.608V138H161.232ZM173.45 138.16C172.703 138.16 172.052 138.016 171.498 137.728C170.943 137.44 170.511 137.035 170.202 136.512C169.903 135.979 169.754 135.355 169.754 134.64V132.56C169.754 131.845 169.903 131.227 170.202 130.704C170.511 130.171 170.943 129.76 171.498 129.472C172.052 129.184 172.703 129.04 173.45 129.04C174.186 129.04 174.826 129.184 175.37 129.472C175.924 129.76 176.351 130.165 176.65 130.688C176.959 131.2 177.114 131.803 177.114 132.496V134.096H171.674V134.704C171.674 135.301 171.828 135.755 172.138 136.064C172.447 136.363 172.884 136.512 173.45 136.512C173.866 136.512 174.218 136.443 174.506 136.304C174.804 136.155 174.98 135.941 175.034 135.664H177.018C176.879 136.421 176.484 137.029 175.834 137.488C175.183 137.936 174.388 138.16 173.45 138.16ZM175.194 132.96V132.48C175.194 131.872 175.044 131.403 174.746 131.072C174.458 130.741 174.026 130.576 173.45 130.576C172.874 130.576 172.431 130.747 172.122 131.088C171.823 131.419 171.674 131.888 171.674 132.496V132.8L175.338 132.784L175.194 132.96ZM181.412 138.16C180.516 138.16 179.806 137.909 179.284 137.408C178.772 136.896 178.516 136.229 178.516 135.408C178.516 134.832 178.649 134.336 178.916 133.92C179.182 133.504 179.561 133.184 180.052 132.96C180.553 132.725 181.14 132.608 181.812 132.608H183.956V131.984C183.956 131.557 183.822 131.232 183.556 131.008C183.3 130.773 182.916 130.656 182.404 130.656C181.934 130.656 181.556 130.747 181.268 130.928C180.99 131.109 180.841 131.365 180.82 131.696H178.9C178.942 130.896 179.273 130.256 179.892 129.776C180.521 129.285 181.364 129.04 182.42 129.04C183.54 129.04 184.409 129.301 185.028 129.824C185.646 130.347 185.956 131.083 185.956 132.032V138H184.004V136.32H183.684L184.036 136.032C184.036 136.469 183.929 136.848 183.716 137.168C183.502 137.477 183.198 137.723 182.804 137.904C182.409 138.075 181.945 138.16 181.412 138.16ZM182.052 136.528C182.638 136.528 183.102 136.384 183.444 136.096C183.785 135.808 183.956 135.424 183.956 134.944V133.904H181.908C181.47 133.904 181.124 134.027 180.868 134.272C180.612 134.507 180.484 134.821 180.484 135.216C180.484 135.611 180.617 135.931 180.884 136.176C181.161 136.411 181.55 136.528 182.052 136.528ZM191.485 138.16C190.728 138.16 190.067 138.021 189.501 137.744C188.947 137.456 188.515 137.056 188.205 136.544C187.896 136.021 187.741 135.408 187.741 134.704V132.496C187.741 131.781 187.896 131.168 188.205 130.656C188.515 130.144 188.947 129.749 189.501 129.472C190.067 129.184 190.728 129.04 191.485 129.04C192.584 129.04 193.464 129.328 194.125 129.904C194.787 130.469 195.139 131.243 195.181 132.224H193.213C193.181 131.765 193.011 131.413 192.701 131.168C192.392 130.912 191.987 130.784 191.485 130.784C190.941 130.784 190.515 130.933 190.205 131.232C189.896 131.52 189.741 131.936 189.741 132.48V134.704C189.741 135.248 189.896 135.669 190.205 135.968C190.515 136.267 190.941 136.416 191.485 136.416C191.987 136.416 192.392 136.293 192.701 136.048C193.011 135.792 193.181 135.435 193.213 134.976H195.181C195.139 135.957 194.787 136.736 194.125 137.312C193.464 137.877 192.584 138.16 191.485 138.16ZM196.727 138V126.32H198.727V129.2L198.679 130.88H199.223L198.631 131.344C198.642 130.64 198.866 130.08 199.303 129.664C199.74 129.248 200.322 129.04 201.047 129.04C201.911 129.04 202.599 129.328 203.111 129.904C203.634 130.48 203.895 131.253 203.895 132.224V138H201.895V132.464C201.895 131.92 201.756 131.504 201.479 131.216C201.202 130.917 200.818 130.768 200.327 130.768C199.826 130.768 199.431 130.917 199.143 131.216C198.866 131.515 198.727 131.941 198.727 132.496V138H196.727Z" fill="#AA99EC"/>
</svg>
